X: 171
T: A Farruquiña
R: polka
M: 2/4
K: Dmajor
d2ABABc2|d2A2B2c2|d2cdedcB|A2F2AGFE|
D2E2FEFGA2|ABcdcAB2|A8|:DE|F3DFDFA|GFEDC3E|
FG3EGEG|BAGFED2D|EF3DFDF|AGFEDC3|
EFGFEDCD|EFAGFED2:|

